outputs/icons/general/queue_round.svg

<svg xmlns="http://www.w3.org/2000/svg" width="1200" height="1200" fill="none"><path fill="#000" d="M200 350c0-27.614-22.386-50-50-50s-50 22.386-50 50v650c0 55 45 100 100 100h650c27.615 0 50-22.385 50-50s-22.385-50-50-50H200zm800-250H400c-55 0-100 45-100 100v600c0 55 45 100 100 100h600c55 0 100-45 100-100V200c0-55-45-100-100-100m-50 400c0 27.615-22.385 50-50 50H750v150c0 27.615-22.385 50-50 50s-50-22.385-50-50V550H500c-27.614 0-50-22.385-50-50s22.386-50 50-50h150V300c0-27.614 22.385-50 50-50s50 22.386 50 50v150h150c27.615 0 50 22.386 50 50"/></svg>

<svg width="1200" height="1200" viewBox="0 0 1200 1200" fill="none" xmlns="http://www.w3.org/2000/svg"><path d="M200 350C200 322.386 177.614 300 150 300C122.386 300 100 322.386 100 350V1000C100 1055 145 1100 200 1100H850C877.615 1100 900 1077.615 900 1050C900 1022.385 877.615 1000 850 1000H200V350ZM1000 100H400C345 100 300 145 300 200V800C300 855 345 900 400 900H1000C1055 900 1100 855 1100 800V200C1100 145 1055 100 1000 100ZM950 500C950 527.615 927.615 550 900 550H750V700C750 727.615 727.615 750 700 750C672.385 750 650 727.615 650 700V550H500C472.386 550 450 527.615 450 500C450 472.386 472.386 450 500 450H650V300C650 272.386 672.385 250 700 250C727.615 250 750 272.386 750 300V450H900C927.615 450 950 472.386 950 500Z" fill="black"/></svg>
